X:462
%%etbk:tnset id:151,pos:1,rep:3x,ant:
%%etbk:wsite http://thesession.org/tunes/8007
%%etbk:video src:ytube,cde:WFayNpaP1FE,desc:
%%etbk:skill ?
%%etbk:pldat 2013-11-24T14:22
T: Marga's Moment
H: Created 2013-02-19 /  No Piano Box Version Yet
R: horo
M: 7/8
K: Dmaj
|: d2 cA dcA | G2 D2 GDG | A2 D2 ADA | AE cE ABc |
d2 c/B/A dcA | G2 D2 GDG |1 A2 D2 ABc | e2 c2 c2e :|2 A2 D2 AGF |  G2 F2 EED ||
|: B2 dB fed | G2 Bd a2b | ag gf fga | g2 f2 edc |
B2 dB fed | G2 Bd a2b | ag gf fga | g2 f2 edc :|
|"var bar 8" e2 c2 cBc|
